icons/24x24_bell_outline.svg

<svg xmlns="http://www.w3.org/2000/svg" width="24" height="24" viewBox="0 0 24 24">
  <path d="M10,20 C10,21.1045695 10.8954305,22 12,22 C13.1045695,22 14,21.1045695 14,20 L10,20 Z M10.0273967,4.33180314 C10.0093774,4.22388264 10,4.11303643 10,4 C10,2.8954305 10.8954305,2 12,2 C13.1045695,2 14,2.8954305 14,4 C14,4.11303643 13.9906226,4.22388264 13.9726033,4.33180314 C16.317288,5.14769073 18,7.37733614 18,10 L18,13 L19.6583679,16.3167358 C20.1162776,17.2326257 19.7450456,18.3463217 18.8291699,18.8042595 C18.5717208,18.9329841 18.2878369,19 18,19 L6,19 C4.8954305,19 4,18.1045695 4,17 L5.98976356,13 L6,10 C6,7.37733614 7.68271203,5.14769073 10.0273967,4.33180314 Z M16,13.472136 L16,10 C16,7.790861 14.209139,6 12,6 C9.790861,6 8,7.790861 7.99998836,10.0068243 L7.98816059,13.4731953 L6.23378373,17 L17.763932,17 L16,13.472136 Z"/>
</svg>

<svg width="24" height="24" fill="none" xmlns="http://www.w3.org/2000/svg"><path d="M10 20a2 2 0 1 0 4 0h-4Zm.027-15.668a2 2 0 1 1 3.945 0A6.003 6.003 0 0 1 18 10v3l1.658 3.317A1.854 1.854 0 0 1 18 19H6a2 2 0 0 1-2-2l1.99-4L6 10a6.003 6.003 0 0 1 4.027-5.668ZM16 13.472V10a4 4 0 1 0-8 .007l-.012 3.466L6.234 17h11.53L16 13.472Z" fill="#000"/></svg>
